X:153
T:Hommage à Yvan Brault
S:Gaston Nolet, SPTDQ 2011
Z:robin.beech@mcgill.ca
M:4/4
L:1/8
K:A
Ac |: e3e efed | cece c3B | AAEA B2c2 | d2BB B2E2 |
d3d dedc | BeBe B3E | BBEB A2B2 | cAFA EEAc |
e3e efed | cece c3B | AAEA B2c2 | dFAd f4 |
f3f fedf | efec efec | dfdf cfBf |1 AAce a2Ac :|2 AAce a2AB |:
c3e f2e2 | cecB AEAB | c3e f2e2 | dedc BEBc |
d3e f2e2 | dedc B3E | eeEe eEee | edcB cAEA |
c3e f2e2 | cecB AEAB | c3e f2e2 | dedc BEBc |
d3e f2e2 | dedc B3E | eeEe eEee |1 edcB A2AB :|2 edcB A2Ac |]
